X: 4
T: Corney Is Coming
R: reel
M: 4/4
L: 1/8
K: Dmin
Ddd^c defd|cBAG FGEC|Ddd^c d>ef>g|ed^ce d/d/dd2 :|
defg afdg|e>dcg ecge|defg afdg|ecge d/d/d d2|
defg afdg|e>dcg ecge|defg afgf|ecge d/d/d d2||


Tune 943	Setting 14135

